X: 4904
T: Brandyburn House
R: polka
M: 2/4
K: Gmajor
BG DG|ED DG|BG AB/c/|ed d2|
BG DG|ED DG|A/B/c c/B/A|FA G2:|
B/c/d ed|gd ed|B/c/d ed|gd e2|
B/c/d ed|gd ed|A/B/c c/B/A|FA G2:|

